X: 971
T: Texas Quickstep
B: jims roots
M:C|
L:1/8
Q: 1/4=100
K:D
V:1 
%S:Red Headed Fiddlers (Dallas-Ft. Worth, Texas)
%D:Document DOCD-8038, "Texas Fiddle Bands vol. 1" (1999)
%D:Brunswick 285 (78 RPM), Red Headed Fiddlers (1928)
%F:http://www.slippery-hill.com/recording/texas-quickstep
A,C | "D"[D2A2]FA d2A2 | "G"GABd g2g2 | "A"Ace^g aece | "D"dedB AGFE |
"D"D2FA dAFA | "G"GABd gdBd | "A"Ace^g aece | "D"[d2f2](e/d/c) [d2f2] :|
|: eg | "D"fdfa "G"gfge | "A"abaf "D"d2(f/g/f) | "A"ecef gece | "D"defg abag |
        "D"fdfa "G"gfge | "A"abaf "D"d2(f/g/f) | "A"ecef gece | "D"[d2f2](e/d/c) [d2f2]  |
% abcbook-tune_id 6298c2971bc93f62287cfabd


% abcbook-boost 0
% abcbook-tablature 
% abcbook-transpose 
% abcbook-lastupdated 1654178456123
% abcbook-soundfonts 
% abcbook-repeats 1


